X:744
T:Kyrk-polska
C: Lars Näsbom
R:Polska
N:Arr: John Forslund
M:3/4
L:1/16
K:F
V:1
|: C3d c4 A4 | {AB}A2GA B4 G4 | C3e e2d2 c2B2 | {Bc}B2AB d2c2 A2F2 | C3d c4 A4 | {AB}A2GA B4 G4 |
C3e e2d2 c2B2 | C2EG F8 :: A3c f4 f4 | {ef}e3B d4 d4 | (CE)GB d2c2 B2G2 |
(CF)Ac d2c2 A2F2 | A3c f4 f4 | {ef}e3B d4 d4 | (CE)GB d2c2 B2G2 | C2EG F8 :|

V:2
|: F3B A4 F4 | {FG}F2EF G4 E4 | E3B B2G2 E2C2 | {FG}F2EF A2F2 C2B,2 | F3B A4 F4 | {FG}F2EF G4 E4 |
E3B B2G2 E2C2 | E2CB, A,8 :: F3A c4 c4 | d3B F2D2 B,4 |(B,C)EG B2G2 E2C2 |
(A,C)FA B2A2 F2C2 | F3A c4 c4 | d3B F2D2 B,4 | (B,C)EG B2G2 E2C2 | E2CB, A,8 :|
(:musicend:)

Här finns en [[!andrastämma]].
[[!Ackord]]

(:music:)
